;FLAVOR:Marlin
;TIME:18118
;Filament used: 8.8895m
;Layer height: 0.16
;MINX:69.419
;MINY:41.453
;MINZ:0.2
;MAXX:200.922
;MAXY:91.389
;MAXZ:48.52
;Generated with Cura_SteamEngine 4.10.0
M140 S50
M105
M190 S50
M104 S200
M105
M109 S200
M82 ;absolute extrusion mode
; Ender 3 Custom Start G-code
G92 E0 ; Reset Extruder
G28 ; Home all axes
G1 Z2.0 F3000 ; Move Z Axis up little to prevent scratching of Heat Bed
G1 X0.1 Y20 Z0.3 F5000.0 ; Move to start position
G1 X0.1 Y200.0 Z0.3 F1500.0 E15 ; Draw the first line
G1 X0.4 Y200.0 Z0.3 F5000.0 ; Move to side a little
G1 X0.4 Y20 Z0.3 F1500.0 E30 ; Draw the second line
G92 E0 ; Reset Extruder
G1 Z2.0 F3000 ; Move Z Axis up little to prevent scratching of Heat Bed
G1 X5 Y20 Z0.3 F5000.0 ; Move over to prevent blob squish
G92 E0
G92 E0
G1 F2700 E-5
;LAYER_COUNT:305
;LAYER:0
M107
G0 F6000 X71.428 Y46.142 Z0.2
;TYPE:SKIRT
G1 F2700 E0
G1 F1200 X71.999 Y45.398 E0.03119
G1 X72.631 Y44.705 E0.06239
G1 X73.32 Y44.069 E0.09358
G1 X74.061 Y43.494 E0.12477
G1 X74.848 Y42.984 E0.15596
G1 X75.676 Y42.543 E0.18716
G1 X76.538 Y42.174 E0.21835
G1 X77.429 Y41.88 E0.24956
G1 X78.341 Y41.662 E0.28074
G1 X79.268 Y41.524 E0.31192
G1 X80.122 Y41.466 E0.34039
G1 X80.442 Y41.457 E0.35103
G1 X80.751 Y41.453 E0.36131
G1 X82.714 Y41.453 E0.4266
G1 X83.573 Y41.464 E0.45517
G1 X84.51 Y41.517 E0.48639
G1 X85.438 Y41.65 E0.51757
G1 X86.352 Y41.862 E0.54878
G1 X87.244 Y42.15 E0.57995
G1 X88.109 Y42.514 E0.61117
G1 X88.917 Y42.937 E0.6415
G1 X89.701 Y43.391 E0.67163
G1 X90.646 Y43.954 E0.70822
G1 X92.853 Y45.188 E0.79232
G1 X95.073 Y46.348 E0.87563
G1 X97.324 Y47.444 E0.9589
G1 X99.669 Y48.505 E1.04451
G1 X101.922 Y49.448 E1.12574
G1 X104.359 Y50.391 E1.21265
G1 X106.642 Y51.196 E1.29317
G1 X109.091 Y51.986 E1.37876
G1 X111.487 Y52.684 E1.46176
G1 X113.947 Y53.324 E1.5463
G1 X116.367 Y53.884 E1.62892
G1 X118.89 Y54.393 E1.71453
G1 X121.321 Y54.809 E1.79656
G1 X123.806 Y55.164 E1.88005
G1 X126.313 Y55.45 E1.96397
G1 X128.847 Y55.668 E2.04856
G1 X131.35 Y55.811 E2.13195
G1 X133.847 Y55.883 E2.21503
G1 X136.372 Y55.885 E2.29902
G1 X138.885 Y55.816 E2.38263
G1 X141.416 Y55.673 E2.46695
G1 X143.906 Y55.463 E2.55006
G1 X146.432 Y55.178 E2.63461
G1 X148.909 Y54.827 E2.71781
G1 X151.388 Y54.404 E2.80146
G1 X153.849 Y53.912 E2.88493
G1 X156.281 Y53.353 E2.96793
G1 X158.749 Y52.713 E3.05273
G1 X161.164 Y52.013 E3.13636
G1 X163.585 Y51.235 E3.22094
G1 X165.917 Y50.414 E3.30317
G1 X168.271 Y49.509 E3.38705
G1 X170.611 Y48.533 E3.47137
G1 X172.896 Y47.501 E3.55477
G1 X175.176 Y46.395 E3.63905
G1 X177.383 Y45.246 E3.72181
G1 X179.628 Y43.995 E3.80729
G1 X180.88 Y43.26 E3.85557
G1 X181.31 Y43.005 E3.8722
G1 X182.463 Y42.41 E3.91536
G1 X183.336 Y42.066 E3.94656
G1 X184.235 Y41.798 E3.97777
G1 X185.153 Y41.607 E4.00895
G1 X186.084 Y41.495 E4.04014
G1 X186.622 Y41.466 E4.05806
G1 X186.942 Y41.457 E4.06871
G1 X187.251 Y41.453 E4.07899
G1 X189.355 Y41.454 E4.14897
G1 X190.053 Y41.463 E4.17218
G1 X190.989 Y41.515 E4.20336
G1 X191.918 Y41.647 E4.23457
G1 X192.832 Y41.857 E4.26576
G1 X193.725 Y42.144 E4.29696
G1 X194.59 Y42.507 E4.32816
G1 X195.421 Y42.941 E4.35934
G1 X196.212 Y43.445 E4.39054
G1 X196.957 Y44.015 E4.42174
G1 X197.651 Y44.646 E4.45294
G1 X198.288 Y45.333 E4.4841
G1 X198.865 Y46.073 E4.51531
G1 X199.377 Y46.859 E4.54651
G1 X199.82 Y47.686 E4.57771
G1 X200.191 Y48.547 E4.60889
G1 X200.487 Y49.437 E4.64009
G1 X200.706 Y50.349 E4.67128
G1 X200.847 Y51.276 E4.70247
G1 X200.907 Y52.154 E4.73174
G1 X200.916 Y52.475 E4.74242
G1 X200.92 Y52.783 E4.75267
G1 X200.92 Y58.75 E4.95113
G1 X200.915 Y59.839 E4.98735
G1 X200.92 Y60.575 E5.01183
G1 X200.922 Y69.493 E5.30844
G1 X200.918 Y70.465 E5.34077
G1 X200.92 Y70.729 E5.34955
G1 X200.919 Y78.938 E5.62259
G1 X200.909 Y79.665 E5.64677
G1 X200.856 Y80.602 E5.67798
G1 X200.724 Y81.53 E5.70916
G1 X200.513 Y82.444 E5.74036
G1 X200.224 Y83.336 E5.77155
G1 X199.861 Y84.201 E5.80275
G1 X199.426 Y85.032 E5.83394
G1 X198.921 Y85.822 E5.86513
G1 X198.351 Y86.567 E5.89633
G1 X197.72 Y87.261 E5.92753
G1 X197.031 Y87.898 E5.95873
G1 X196.291 Y88.474 E5.98992
G1 X195.505 Y88.985 E6.02111
G1 X194.678 Y89.427 E6.05229
G1 X193.816 Y89.797 E6.08349
G1 X192.926 Y90.092 E6.11468
G1 X192.014 Y90.311 E6.14587
G1 X191.087 Y90.451 E6.17706
G1 X190.219 Y90.51 E6.20599
G1 X189.899 Y90.519 E6.21664
G1 X189.59 Y90.523 E6.22692
G1 X80.986 Y90.522 E9.8391
G1 X80.288 Y90.513 E9.86232
G1 X79.352 Y90.461 E9.8935
G1 X78.423 Y90.329 E9.92471
G1 X77.509 Y90.119 E9.9559
G1 X76.616 Y89.832 E9.9871
G1 X75.751 Y89.469 E10.0183
G1 X74.92 Y89.035 E10.04948
G1 X74.129 Y88.531 E10.08068
G1 X73.384 Y87.961 E10.11187
G1 X72.69 Y87.33 E10.14307
G1 X72.053 Y86.643 E10.17423
G1 X71.476 Y85.903 E10.20544
G1 X70.964 Y85.117 E10.23664
G1 X70.521 Y84.29 E10.26785
G1 X70.15 Y83.429 E10.29903
G1 X69.854 Y82.539 E10.33022
G1 X69.635 Y81.627 E10.36142
G1 X69.494 Y80.7 E10.39261
G1 X69.434 Y79.811 E10.42224
G1 X69.425 Y79.478 E10.43332
G1 X69.421 Y79.184 E10.4431
G1 X69.419 Y70.413 E10.73483
G1 X69.423 Y69.441 E10.76716
G1 X69.421 Y69.177 E10.77594
G1 X69.421 Y60.117 E11.07727
G1 X69.425 Y59.01 E11.11409
G1 X69.421 Y58.463 E11.13229
G1 X69.422 Y52.962 E11.31525
G1 X69.432 Y52.297 E11.33737
G1 X69.486 Y51.36 E11.36859
G1 X69.62 Y50.432 E11.39977
G1 X69.832 Y49.518 E11.43098
G1 X70.121 Y48.626 E11.46217
G1 X70.486 Y47.762 E11.49336
G1 X70.922 Y46.932 E11.52454
G1 X71.428 Y46.142 E11.55575
G0 F6000 X71.824 Y46.275
G1 F1200 X72.393 Y45.552 E11.58635
G1 X73.023 Y44.88 E11.61699
G1 X73.709 Y44.266 E11.64761
G1 X74.445 Y43.714 E11.67821
G1 X75.227 Y43.227 E11.70885
G1 X76.048 Y42.811 E11.73946
G1 X76.902 Y42.467 E11.77008
G1 X77.782 Y42.198 E11.80069
G1 X78.683 Y42.007 E11.83132
G1 X79.597 Y41.895 E11.86195
G1 X80.133 Y41.866 E11.8798
G1 X80.453 Y41.857 E11.89045
G1 X80.751 Y41.853 E11.90036
G1 X82.714 Y41.853 E11.96565
G1 X83.568 Y41.864 E11.99406
G1 X84.487 Y41.917 E12.02467
G1 X85.398 Y42.05 E12.05529
G1 X86.294 Y42.261 E12.08591
G1 X87.168 Y42.549 E12.11652
G1 X88.015 Y42.912 E12.14717
G1 X88.717 Y43.283 E12.17358
G1 X89.496 Y43.734 E12.20351
G1 X90.452 Y44.304 E12.24053
G1 X92.652 Y45.534 E12.32437
G1 X94.892 Y46.704 E12.40842
G1 X97.192 Y47.824 E12.49351
G1 X99.456 Y48.848 E12.57615
G1 X101.847 Y49.849 E12.66236
G1 X104.178 Y50.75 E12.74548
G1 X106.542 Y51.584 E12.82886
G1 X108.961 Y52.364 E12.91339
G1 X111.38 Y53.069 E12.9972
G1 X113.827 Y53.706 E13.0813
G1 X116.307 Y54.28 E13.16596
G1 X118.81 Y54.785 E13.25089
G1 X121.275 Y55.207 E13.33407
G1 X123.736 Y55.558 E13.41675
G1 X126.305 Y55.852 E13.50276
G1 X128.791 Y56.065 E13.58574
G1 X131.315 Y56.209 E13.66983
G1 X133.87 Y56.283 E13.75484
G1 X136.383 Y56.285 E13.83843
G1 X138.918 Y56.215 E13.92277
G1 X141.439 Y56.073 E14.00675
G1 X143.948 Y55.861 E14.0905
G1 X146.462 Y55.578 E14.17465
G1 X148.961 Y55.223 E14.2586
G1 X151.468 Y54.795 E14.34319
G1 X153.905 Y54.309 E14.42584
G1 X156.432 Y53.728 E14.51208
G1 X158.855 Y53.099 E14.59534
G1 X161.27 Y52.399 E14.67897
G1 X163.693 Y51.621 E14.76361
G1 X166.088 Y50.778 E14.84806
G1 X168.389 Y49.893 E14.93006
G1 X170.764 Y48.902 E15.01565
G1 X173.087 Y47.854 E15.10041
G1 X175.329 Y46.766 E15.1833
G1 X177.611 Y45.578 E15.26887
G1 X179.812 Y44.351 E15.35268
G1 X181.042 Y43.629 E15.40012
G1 X181.514 Y43.349 E15.41837
G1 X182.626 Y42.776 E15.45998
G1 X183.483 Y42.439 E15.4906
G1 X184.365 Y42.177 E15.52121
G1 X185.268 Y41.993 E15.55186
G1 X186.633 Y41.866 E15.59745
G1 X186.953 Y41.857 E15.6081
G1 X187.251 Y41.853 E15.61801
G1 X189.35 Y41.854 E15.68783
G1 X190.048 Y41.863 E15.71104
G1 X190.967 Y41.915 E15.74166
G1 X191.878 Y42.046 E15.77227
G1 X192.774 Y42.256 E15.80288
G1 X193.649 Y42.543 E15.83351
G1 X194.496 Y42.905 E15.86414
G1 X195.308 Y43.339 E15.89477
G1 X196.079 Y43.841 E15.92537
G1 X196.804 Y44.409 E15.956
G1 X197.477 Y45.038 E15.98664
G1 X198.092 Y45.722 E16.01723
G1 X198.646 Y46.457 E16.04784
G1 X199.134 Y47.238 E16.07847
G1 X199.553 Y48.058 E16.1091
G1 X199.899 Y48.911 E16.13972
G1 X200.169 Y49.791 E16.17033
G1 X200.362 Y50.692 E16.20098
G1 X200.476 Y51.605 E16.23158
G1 X200.507 Y52.165 E16.25024
G1 X200.516 Y52.486 E16.26092
G1 X200.52 Y52.783 E16.2708
G1 X200.52 Y58.748 E16.46919
G1 X200.515 Y59.84 E16.50551
G1 X200.52 Y60.575 E16.52996
G1 X200.522 Y69.492 E16.82654
G1 X200.518 Y70.468 E16.859
G1 X200.52 Y70.732 E16.86779
G1 X200.519 Y78.933 E17.14055
G1 X200.509 Y79.66 E17.16473
G1 X200.456 Y80.579 E17.19535
G1 X200.324 Y81.49 E17.22597
G1 X200.113 Y82.386 E17.25658
G1 X199.826 Y83.261 E17.28721
G1 X199.463 Y84.107 E17.31783
G1 X199.029 Y84.919 E17.34845
G1 X198.525 Y85.69 E17.37909
G1 X197.957 Y86.414 E17.4097
G1 X197.328 Y87.086 E17.44031
G1 X196.643 Y87.701 E17.47093
G1 X195.907 Y88.254 E17.50155
G1 X195.126 Y88.742 E17.53218
G1 X194.306 Y89.16 E17.56279
G1 X193.452 Y89.505 E17.59343
G1 X192.572 Y89.774 E17.62403
G1 X191.671 Y89.967 E17.65468
G1 X190.758 Y90.08 E17.68528
G1 X190.208 Y90.11 E17.7036
G1 X189.888 Y90.119 E17.71424
G1 X189.59 Y90.123 E17.72416
G1 X80.991 Y90.122 E21.33617
G1 X80.293 Y90.113 E21.35939
G1 X79.374 Y90.061 E21.39001
G1 X78.463 Y89.93 E21.42062
G1 X77.567 Y89.72 E21.45123
G1 X76.692 Y89.433 E21.48185
G1 X75.845 Y89.071 E21.51249
G1 X75.033 Y88.637 E21.54311
G1 X74.262 Y88.135 E21.57371
G1 X73.537 Y87.567 E21.60435
G1 X72.864 Y86.938 E21.63499
G1 X72.249 Y86.254 E21.66558
G1 X71.695 Y85.519 E21.69619
G1 X71.207 Y84.738 E21.72682
G1 X70.788 Y83.918 E21.75745
G1 X70.442 Y83.065 E21.78807
G1 X70.172 Y82.185 E21.81868
G1 X69.979 Y81.284 E21.84933
G1 X69.865 Y80.371 E21.87993
G1 X69.834 Y79.8 E21.89895
G1 X69.825 Y79.467 E21.91003
G1 X69.821 Y79.183 E21.91948
G1 X69.819 Y70.414 E22.21113
G1 X69.823 Y69.438 E22.2436
G1 X69.821 Y69.174 E22.25238
G1 X69.821 Y60.118 E22.55358
G1 X69.825 Y59.008 E22.5905
G1 X69.821 Y58.461 E22.60869
G1 X69.822 Y52.968 E22.79139
G1 X69.832 Y52.303 E22.81351
G1 X69.886 Y51.384 E22.84413
G1 X70.019 Y50.473 E22.87475
G1 X70.231 Y49.577 E22.90538
G1 X70.52 Y48.702 E22.93603
G1 X70.884 Y47.857 E22.96663
G1 X71.319 Y47.046 E22.99724
G1 X71.824 Y46.275 E23.02789
G0 F6000 X72.219 Y46.411
G1 F1200 X72.787 Y45.709 E23.05793
G1 X73.414 Y45.059 E23.08796
G1 X74.096 Y44.467 E23.118
G1 X74.828 Y43.938 E23.14804
G1 X75.604 Y43.476 E23.17808
G1 X76.418 Y43.085 E23.20811
G1 X77.263 Y42.766 E23.23815
G1 X78.133 Y42.524 E23.26819
G1 X79.021 Y42.36 E23.29822
G1 X80.144 Y42.266 E23.3357
G1 X80.464 Y42.257 E23.34635
G1 X80.751 Y42.253 E23.3559
G1 X82.714 Y42.253 E23.42119
G1 X83.562 Y42.264 E23.44939
G1 X84.464 Y42.317 E23.47945
G1 X85.357 Y42.449 E23.50947
G1 X86.235 Y42.66 E23.5395
G1 X87.091 Y42.948 E23.56954
G1 X87.918 Y43.31 E23.59957
G1 X88.517 Y43.629 E23.62214
G1 X89.292 Y44.078 E23.65193
G1 X90.247 Y44.647 E23.68891
G1 X92.478 Y45.895 E23.77393
G1 X94.71 Y47.061 E23.85769
G1 X97.002 Y48.177 E23.94247
G1 X99.315 Y49.223 E24.02691
G1 X101.684 Y50.215 E24.11233
G1 X104.048 Y51.129 E24.19663
G1 X106.423 Y51.967 E24.28039
G1 X108.832 Y52.743 E24.36457
G1 X111.272 Y53.454 E24.4491
G1 X113.742 Y54.098 E24.534
G1 X116.21 Y54.668 E24.61825
G1 X118.729 Y55.176 E24.70372
G1 X121.228 Y55.604 E24.78804
G1 X123.701 Y55.957 E24.87113
G1 X126.226 Y56.246 E24.95566
G1 X128.803 Y56.467 E25.04169
G1 X131.282 Y56.608 E25.12427
G1 X133.859 Y56.683 E25.21002
G1 X136.394 Y56.685 E25.29433
G1 X138.917 Y56.615 E25.37828
G1 X141.459 Y56.472 E25.46296
G1 X143.991 Y56.258 E25.54748
G1 X146.526 Y55.972 E25.63233
G1 X149.013 Y55.62 E25.71587
G1 X151.542 Y55.188 E25.8012
G1 X154.008 Y54.696 E25.88484
G1 X156.517 Y54.119 E25.97046
G1 X158.963 Y53.485 E26.05451
G1 X161.389 Y52.781 E26.13853
G1 X163.811 Y52.004 E26.22313
G1 X166.216 Y51.157 E26.30793
G1 X168.55 Y50.259 E26.39111
G1 X170.933 Y49.265 E26.47699
G1 X173.246 Y48.221 E26.56139
G1 X175.523 Y47.116 E26.64557
G1 X177.785 Y45.939 E26.73038
G1 X180.011 Y44.698 E26.81515
G1 X181.285 Y43.95 E26.86428
G1 X181.718 Y43.693 E26.88103
G1 X182.788 Y43.141 E26.92108
G1 X183.629 Y42.811 E26.95112
G1 X184.496 Y42.557 E26.98117
G1 X185.381 Y42.38 E27.01119
G1 X186.644 Y42.266 E27.05337
G1 X186.964 Y42.257 E27.06402
G1 X187.251 Y42.253 E27.07356
G1 X189.345 Y42.254 E27.14321
G1 X190.043 Y42.263 E27.16643
G1 X190.944 Y42.314 E27.19644
G1 X191.838 Y42.446 E27.2265
G1 X192.716 Y42.655 E27.25652
G1 X193.573 Y42.942 E27.28658
G1 X194.4 Y43.303 E27.31659
G1 X195.193 Y43.736 E27.34664
G1 X195.944 Y44.237 E27.37667
G1 X196.648 Y44.803 E27.40671
G1 X197.299 Y45.429 E27.43675
G1 X197.892 Y46.11 E27.46678
G1 X198.422 Y46.841 E27.49682
G1 X198.886 Y47.616 E27.52686
G1 X199.28 Y48.429 E27.55691
G1 X199.6 Y49.273 E27.58693
G1 X199.844 Y50.143 E27.61698
G1 X200.01 Y51.031 E27.64703
G1 X200.107 Y52.176 E27.68525
G1 X200.116 Y52.497 E27.69593
G1 X200.12 Y52.783 E27.70544
G1 X200.12 Y58.747 E27.9038
G1 X200.115 Y59.798 E27.93876
G1 X200.12 Y60.575 E27.96461
G1 X200.122 Y69.49 E28.26112
G1 X200.118 Y70.471 E28.29375
G1 X200.12 Y70.735 E28.30253
G1 X200.119 Y78.927 E28.575
G1 X200.109 Y79.654 E28.59918
G1 X200.057 Y80.556 E28.62923
G1 X199.925 Y81.449 E28.65925
G1 X199.714 Y82.328 E28.68932
G1 X199.427 Y83.184 E28.71935
G1 X199.065 Y84.011 E28.74937
G1 X198.631 Y84.803 E28.77941
G1 X198.129 Y85.554 E28.80946
G1 X197.563 Y86.257 E28.83947
G1 X196.936 Y86.908 E28.86954
G1 X196.255 Y87.5 E28.89955
G1 X195.524 Y88.03 E28.92958
G1 X194.748 Y88.493 E28.95963
G1 X193.935 Y88.886 E28.98967
G1 X193.09 Y89.206 E29.01972
G1 X192.221 Y89.449 E29.04973
G1 X191.333 Y89.614 E29.07977
G1 X190.197 Y89.71 E29.11769
G1 X189.877 Y89.719 E29.12834
G1 X189.59 Y89.723 E29.13789
G1 X80.996 Y89.722 E32.74974
G1 X80.298 Y89.713 E32.77295
G1 X79.397 Y89.662 E32.80297
G1 X78.503 Y89.53 E32.83303
G1 X77.625 Y89.321 E32.86304
G1 X76.768 Y89.034 E32.8931
G1 X75.941 Y88.673 E32.92312
G1 X75.148 Y88.24 E32.95317
G1 X74.397 Y87.739 E32.98319
G1 X73.693 Y87.173 E33.01324
G1 X73.042 Y86.547 E33.04328
G1 X72.449 Y85.866 E33.07331
G1 X71.919 Y85.135 E33.10334
G1 X71.455 Y84.36 E33.13339
G1 X71.061 Y83.547 E33.16343
G1 X70.741 Y82.703 E33.19346
G1 X70.497 Y81.833 E33.22351
G1 X70.331 Y80.945 E33.25356
G1 X70.234 Y79.79 E33.29211
G1 X70.225 Y79.457 E33.30319
G1 X70.221 Y79.183 E33.3123
G1 X70.219 Y70.416 E33.60389
G1 X70.223 Y69.435 E33.63652
G1 X70.221 Y69.171 E33.6453
G1 X70.221 Y60.12 E33.94634
G1 X70.225 Y59.005 E33.98342
G1 X70.221 Y58.458 E34.00162
G1 X70.222 Y52.974 E34.18402
G1 X70.232 Y52.309 E34.20614
G1 X70.286 Y51.407 E34.23619
G1 X70.419 Y50.514 E34.26622
G1 X70.63 Y49.636 E34.29625
G1 X70.919 Y48.78 E34.3263
G1 X71.282 Y47.953 E34.35634
G1 X71.716 Y47.162 E34.38635
G1 X72.219 Y46.411 E34.41641
G1 F2700 E29.41641
;MESH:GMOdetective3D_V02_dusjagr.stl
G0 F6000 X79.756 Y70.867
G0 X80.835 Y70.867
G0 X82.239 Y71.635
G0 X82.421 Y78.001
;TYPE:WALL-INNER
G1 F2700 E34.41641
G1 F1200 X187.722 Y78.002 E37.91874
G1 X187.921 Y78.002 E37.92536
G1 X187.921 Y77.803 E37.92964
G1 X187.921 Y71.453 E38.14084
G1 X188.92 Y71.453 E38.17407
G1 X188.92 Y78.523 E38.40922
G1 X81.421 Y78.523 E41.98465
G1 X81.421 Y71.453 E42.2198
G1 X82.421 Y71.453 E42.25306
G1 X82.421 Y78.001 E42.47085
G0 F6000 X82.821 Y77.601
G1 F1200 X187.322 Y77.602 E45.94656
G1 X187.521 Y77.602 E45.95318
G1 X187.521 Y77.403 E45.95747
G1 X187.521 Y71.053 E46.16867
G1 X189.32 Y71.053 E46.2285
G1 X189.32 Y78.923 E46.49026
G1 X81.021 Y78.923 E50.0923
G1 X81.021 Y71.053 E50.35406
G1 X82.821 Y71.053 E50.41392
G1 X82.821 Y77.601 E50.63171
G0 F6000 X83.221 Y77.201
;TYPE:WALL-OUTER
G1 F1200 X187.121 Y77.202 E54.08744
G1 X187.121 Y70.653 E54.30526
G1 X189.72 Y70.653 E54.3917
G1 X189.72 Y79.323 E54.68007
G1 X80.621 Y79.323 E58.30872
G1 X80.621 Y70.653 E58.59708
G1 X83.221 Y70.653 E58.68356
G1 X83.221 Y77.201 E58.90135
G0 F6000 X82.921 Y77.201
G0 X82.311 Y78.133
G0 X82.031 Y78.133
;TYPE:SKIN
G1 F1200 X81.811 Y78.133 E58.90866
G1 X81.811 Y71.843 E59.11787
G1 X82.031 Y71.843 E59.12519
G1 X82.031 Y78.133 E59.33439
G1 F2700 E54.33439
G0 F6000 X82.311 Y78.133
G0 X188.031 Y78.133
G0 X188.311 Y78.133
G1 F2700 E59.33439
G1 F1200 X188.311 Y71.843 E59.5436
G1 X188.53 Y71.843 E59.55088
G1 X188.53 Y78.133 E59.76009
G1 X188.311 Y78.133 E59.76737
G0 F6000 X188.105 Y78.362
;TYPE:SKIN
